svg/cookie_settings_outline.svg

<svg xmlns="http://www.w3.org/2000/svg" viewBox="0 0 24 24"><path d="M13 11.5c0 .83-.67 1.5-1.5 1.5s-1.5-.67-1.5-1.5.67-1.5 1.5-1.5 1.5.67 1.5 1.5m-2-5c0-.83-.67-1.5-1.5-1.5S8 5.67 8 6.5 8.67 8 9.5 8 11 7.33 11 6.5M21 11a9 9 0 1 1-9-9s1 0 1 1v2h1s1 0 1 1v1h2s1 0 1 1v1h2s.6 0 .87.5c.09.5.13 1 .13 1.5m-2 0h-1.5c-.83 0-1.5-.67-1.5-1.5V9h-1.5c-.83 0-1.5-.67-1.5-1.5V7h-.5c-.83 0-1.5-.67-1.5-1.5V4.07C7.91 4.5 5.47 7 5.07 10.08A1.494 1.494 0 0 1 8 10.5c0 .83-.67 1.5-1.5 1.5-.79 0-1.43-.61-1.5-1.38 0 .49 0 .99.09 1.5.41 2.69 2.45 4.92 5.07 5.62A1.498 1.498 0 0 1 11 15c.83 0 1.5.67 1.5 1.5 0 .72-.5 1.32-1.18 1.46C15.5 18.36 19 15.08 19 11m-2.5 1c-.83 0-1.5.67-1.5 1.5s.67 1.5 1.5 1.5 1.5-.67 1.5-1.5-.67-1.5-1.5-1.5M7 24h2v-2H7zm8 0h2v-2h-2zm-4 0h2v-2h-2z"/></svg>

<?xml version="1.0" encoding="UTF-8"?><!DOCTYPE svg PUBLIC "-//W3C//DTD SVG 1.1//EN" "http://www.w3.org/Graphics/SVG/1.1/DTD/svg11.dtd"><svg xmlns="http://www.w3.org/2000/svg" xmlns:xlink="http://www.w3.org/1999/xlink" version="1.1" id="mdi-cookie-settings-outline" width="24" height="24" viewBox="0 0 24 24"><path d="M13 11.5C13 12.33 12.33 13 11.5 13S10 12.33 10 11.5 10.67 10 11.5 10 13 10.67 13 11.5M11 6.5C11 5.67 10.33 5 9.5 5S8 5.67 8 6.5 8.67 8 9.5 8 11 7.33 11 6.5M21 11C21 15.97 16.97 20 12 20S3 15.97 3 11 7.03 2 12 2C12 2 13 2 13 3V5H14C14 5 15 5 15 6V7H17C17 7 18 7 18 8V9H20C20 9 20.6 9 20.87 9.5C20.96 10 21 10.5 21 11M19 11H17.5C16.67 11 16 10.33 16 9.5V9H14.5C13.67 9 13 8.33 13 7.5V7H12.5C11.67 7 11 6.33 11 5.5V4.07C7.91 4.5 5.47 7 5.07 10.08C5.25 9.46 5.82 9 6.5 9C7.33 9 8 9.67 8 10.5S7.33 12 6.5 12C5.71 12 5.07 11.39 5 10.62C5 11.11 5 11.61 5.09 12.12C5.5 14.81 7.54 17.04 10.16 17.74C9.76 17.47 9.5 17 9.5 16.5C9.5 15.67 10.17 15 11 15S12.5 15.67 12.5 16.5C12.5 17.22 12 17.82 11.32 17.96C15.5 18.36 19 15.08 19 11M16.5 12C15.67 12 15 12.67 15 13.5S15.67 15 16.5 15 18 14.33 18 13.5 17.33 12 16.5 12M7 24H9V22H7V24M15 24H17V22H15V24M11 24H13V22H11V24Z" /></svg>
